X: 30
T:Careless Sally's Reel
% Nottingham Music Database
S:Ralph Page, via PR
M:4/4
L:1/4
K:G
G|"D"D3"D7"E/2F/2|"G"G3A/2B/2|"C"cc "G"BB|"D"A/2G/2A/2B/2 AD|"D"D3"D7"E/2F/2|\
"G"G3A/2B/2|"C"cc "G"BB|"D"A/2G/2A/2B/2 "G"G::
B/2c/2|"G"d/2e/2d/2c/2 B/2G/2B/2c/2|d/2e/2d/2c/2 BA/2
P:3
B/2|"D"c/2d/2c/2B/2 A/2D/2F/2G/2|"Am"A/2B/2c/2B/2 "D"AB/2c/2|\
"G"d/2e/2d/2c/2 B/2G/2B/2c/2|"F"d/2e/2d/2c/2 "E7"BA/2
P:3
B/2|"Am"c/2d/2c/2B/2 A/2D/2F/2G/2|"D7"A/2G/2B/2A/2 "G"G:|


